X: 8280
T: Corner House, The
R: jig
M: 6/8
K: Dmajor
|:B|Add dcd|fed A2d|Bee edB|Bee cBA|
Add dcd|fed A2d|Bed cBc|d3- d2:|
|:A|FAA AFD|GBB BAG|Acc cBc|dcd BAG|
FAA AFD|GBB BAG|Aed cBc|d3- d2:|

